X: 264
T:Ave mundi spes Maria / Ave gemma / O castitatis lilium
N: Derived from Jos2310-Ave_mundi_spes.krn
C: Josquin des Prez
%%abc-version 2.0
%%abcx-abcm2ps-target-version 5.9.1 (29 Sep 2008)
%%abc-creator hum2abc beta
%%abcx-conversion-date 2019/02/12 16:15:51
%%abc-edited-by Jesse Rodin
%%abc-edited-by Joel Chapman 2011/7/13; Victoria Chang 2011/08/08
%%abcx-initial-encoding-date 2011/08/08/
%%humdrum-veritas 1308906164
%%humdrum-veritas-data 4072411926
%%linebreak <none>
%%barnumbers 0
L: 1/4
M: 2/1
Q: 1/2=120
%%staves [1 2 3 4]
V: 1 clef=treble
V: 2 clef=treble-8
V: 3 clef=treble-8
V: 4 clef=bass
K: C
[V:1] z8 | 
[V:2] z8 | 
[V:3] D4G4 | 
[V:4] z4G,,4 | 
[V:1] z8 | 
[V:2] z8 | 
[V:3] G4A4- | 
[V:4] C,4C,4 | 
[V:1] z8 | 
[V:2] z8 | 
[V:3] A4B4 | 
[V:4] D,8 | 
[V:1] z8 | 
[V:2] z8 | 
[V:3] c4d4- | 
[V:4] E,4F,4 | 
[V:1] z8 | 
[V:2] z8 | 
[V:3] d4d4- | 
[V:4] G,8 | 
[V:1] z8 | 
[V:2] z8 | 
[V:3] d2e2d2e2- | 
[V:4] G,8 | 
[V:1] z8 | 
[V:2] z8 | 
[V:3] e2dcB4 | 
[V:4] z4G,4 | 
[V:1] z8 | 
[V:2] z8 | 
[V:3] z4d4 | 
[V:4] F,6E,D, | 
[V:1] z8 | 
[V:2] z8 | 
[V:3] c6BA | 
[V:4] E,4F,4 | 
[V:1] z8 | 
[V:2] z8 | 
[V:3] B4c4 | 
[V:4] G,4E,2F,2- | 
[V:1] z8 | 
[V:2] z8 | 
[V:3] d4B4 | 
[V:4] F,E,D,C,D,4 | 
[V:1] z8 | 
[V:2] z8 | 
[V:3] c6BA | 
[V:4] C,8 | 
[V:1] z8 | 
[V:2] z8 | 
[V:3] G2B2A4 | 
[V:4] z4D,4 | 
[V:1] z8 | 
[V:2] z8 | 
[V:3] G8 | 
[V:4] _E,6D,C, | 
[V:1] z8 | 
[V:2] z8 | 
[V:3] z4A4 | 
[V:4] _E,4D,4- | 
[V:1] z8 | 
[V:2] z8 | 
[V:3] _B6AG | 
[V:4] D,4G,,4 | 
[V:1] z8 | 
[V:2] z8 | 
[V:3] _B4A4 | 
[V:4] z4D,4 | 
[V:1] z8 | 
[V:2] z8 | 
[V:3] G3_EFGA2- | 
[V:4] _E,4D,4 | 
[V:1] z8 | 
[V:2] z8 | 
[V:3] A2G4^F2 | 
[V:4] C,2_B,,2A,,4 | 
[V:1] z16 | 
[V:2] z16 | 
[V:3] G16 | 
[V:4] G,,16 | 
[V:1] D4G4 | 
[V:2] z4G4 | 
[V:3] z8 | 
[V:4] z8 | 
[V:1] G4A4- | 
[V:2] c4c4 | 
[V:3] z8 | 
[V:4] z8 | 
[V:1] A4B4 | 
[V:2] d8 | 
[V:3] z8 | 
[V:4] z8 | 
[V:1] c4d4- | 
[V:2] e4f4 | 
[V:3] z8 | 
[V:4] z8 | 
[V:1] d4d4- | 
[V:2] g8 | 
[V:3] z8 | 
[V:4] z8 | 
[V:1] d2e2d2e2- | 
[V:2] g8 | 
[V:3] z8 | 
[V:4] z8 | 
[V:1] e2dcB4 | 
[V:2] z4g4 | 
[V:3] z8 | 
[V:4] z8 | 
[V:1] z4d4 | 
[V:2] f6ed | 
[V:3] z8 | 
[V:4] z8 | 
[V:1] c6BA | 
[V:2] e4f4 | 
[V:3] z8 | 
[V:4] z8 | 
[V:1] B4c4 | 
[V:2] g4e2f2- | 
[V:3] z8 | 
[V:4] z8 | 
[V:1] d4B4 | 
[V:2] fedcd4 | 
[V:3] z8 | 
[V:4] z8 | 
[V:1] c6BA | 
[V:2] c8 | 
[V:3] z8 | 
[V:4] z8 | 
[V:1] G2B2A4 | 
[V:2] z4d4 | 
[V:3] z8 | 
[V:4] z8 | 
[V:1] G8 | 
[V:2] _e6dc | 
[V:3] z8 | 
[V:4] z8 | 
[V:1] z4A4 | 
[V:2] _e4d4 | 
[V:3] z8 | 
[V:4] z8 | 
[V:1] _B6AG | 
[V:2] dc_BAG4 | 
[V:3] z8 | 
[V:4] z8 | 
[V:1] _B4A4 | 
[V:2] z2g4f2 | 
[V:3] z4d4 | 
[V:4] z8 | 
[V:1] G3A_B2c2- | 
[V:2] g2c2g4 | 
[V:3] _e6dc | 
[V:4] z8 | 
[V:1] c_BAGF2A2- | 
[V:2] c4z2f2 | 
[V:3] _e4d4 | 
[V:4] z8 | 
[V:1] A2G4^F2 | 
[V:2] _e2d3cd2 | 
[V:3] c2_B2A4 | 
[V:4] z4D,4 | 
[V:1] G8 | 
[V:2] _B2c2G4 | 
[V:3] G3A_B2c2- | 
[V:4] _E,6D,C, | 
[V:1] z8 | 
[V:2] z8 | 
[V:3] c_BAGF2A2- | 
[V:4] _E,4D,4 | 
[V:1] z8 | 
[V:2] z8 | 
[V:3] AGG4^F2 | 
[V:4] C,2_B,,2A,,4 | 
[V:1] z8 | 
[V:2] z4d4 | 
[V:3] G8 | 
[V:4] G,,8 | 
[V:1] G4E4 | 
[V:2] B4c4 | 
[V:3] z8 | 
[V:4] z8 | 
[V:1] F4D4 | 
[V:2] A4z2d2- | 
[V:3] z8 | 
[V:4] z8 | 
[V:1] z2G4F2 | 
[V:2] d2c2d3f | 
[V:3] z8 | 
[V:4] z8 | 
[V:1] G2_B2A4 | 
[V:2] edg4^f2 | 
[V:3] z8 | 
[V:4] z4D,4 | 
[V:1] G8 | 
[V:2] g8 | 
[V:3] G4E4 | 
[V:4] B,,4C,4 | 
[V:1] z8 | 
[V:2] z8 | 
[V:3] F4D4 | 
[V:4] A,,4z2D,2- | 
[V:1] z8 | 
[V:2] z8 | 
[V:3] z2G4F2 | 
[V:4] D,2C,2D,3F, | 
[V:1] z8 | 
[V:2] z8 | 
[V:3] G2_B2A4 | 
[V:4] E,D,G,4^F,2 | 
[V:1] z8 | 
[V:2] z4z2G2- | 
[V:3] G4d4 | 
[V:4] G,8 | 
[V:1] G4A4 | 
[V:2] G2c4A2- | 
[V:3] e4c4 | 
[V:4] C,4F,4 | 
[V:1] F4G3F | 
[V:2] A2B3GG2 | 
[V:3] d4B4 | 
[V:4] D,4E,4 | 
[V:1] E2G4^F2 | 
[V:2] e4d4 | 
[V:3] c3BA4 | 
[V:4] C,4D,4 | 
[V:1] G8 | 
[V:2] B8 | 
[V:3] G8- | 
[V:4] G,,8 | 
[V:1] G4E4 | 
[V:2] z4c4 | 
[V:3] G8 | 
[V:4] C,8 | 
[V:1] F4D4 | 
[V:2] A4B4 | 
[V:3] z8 | 
[V:4] z8 | 
[V:1] z2G4F2 | 
[V:2] G4z2d2 | 
[V:3] z8 | 
[V:4] z8 | 
[V:1] G2_B2A4 | 
[V:2] e2g4^f2 | 
[V:3] z8 | 
[V:4] z8 | 
[V:1] G8 | 
[V:2] g8 | 
[V:3] G4E4 | 
[V:4] z4C,4 | 
[V:1] z8 | 
[V:2] z8 | 
[V:3] F4D4 | 
[V:4] A,,4B,,4 | 
[V:1] z8 | 
[V:2] z8 | 
[V:3] z2G4F2 | 
[V:4] G,,4z2D,2 | 
[V:1] z8 | 
[V:2] z8 | 
[V:3] G2_B2A4 | 
[V:4] E,2G,4^F,2 | 
[V:1] z2G4A2- | 
[V:2] d4e4 | 
[V:3] G4z2c2- | 
[V:4] G,4C,4 | 
[V:1] A2F4_B2- | 
[V:2] c2f3edc | 
[V:3] c2A2d4 | 
[V:4] F,4D,2G,2- | 
[V:1] BAGFG2A2- | 
[V:2] d2e3dcB | 
[V:3] B2c3BAG | 
[V:4] G,F,E,D,C,2F,2- | 
[V:1] AGG4^F2 | 
[V:2] c4d4 | 
[V:3] F2G2A4 | 
[V:4] F,2E,2D,4 | 
[V:1] G8 | 
[V:2] B6G2 | 
[V:3] G8- | 
[V:4] G,,8- | 
[V:1] z8 | 
[V:2] G4g4- | 
[V:3] G8 | 
[V:4] G,,8 | 
[V:1] d8 | 
[V:2] g4f4- | 
[V:3] z8 | 
[V:4] z8 | 
[V:1] c6BA | 
[V:2] f2ede2f2 | 
[V:3] z8 | 
[V:4] z8 | 
[V:1] B4c4- | 
[V:2] d4c4 | 
[V:3] z8 | 
[V:4] z8 | 
[V:1] c2B2A4 | 
[V:2] e4f4 | 
[V:3] z8 | 
[V:4] z8 | 
[V:1] GABcd2e2- | 
[V:2] g3ef2g2 | 
[V:3] z8 | 
[V:4] z8 | 
[V:1] edd4^c2 | 
[V:2] d3fe4 | 
[V:3] z8 | 
[V:4] z8 | 
[V:1] d4z4 | 
[V:2] d4G4 | 
[V:3] z8 | 
[V:4] z8 | 
[V:1] G4A4 | 
[V:2] z2c4d2- | 
[V:3] z8 | 
[V:4] z8 | 
[V:1] B4c4 | 
[V:2] d2e4f2- | 
[V:3] z8 | 
[V:4] z8 | 
[V:1] d3Bc2d2 | 
[V:2] f2g3ef2 | 
[V:3] z8 | 
[V:4] z8 | 
[V:1] G4A2B2 | 
[V:2] g2c4d2 | 
[V:3] z8 | 
[V:4] z8 | 
[V:1] c3BAGA2- | 
[V:2] e2f3edc | 
[V:3] z8 | 
[V:4] z8 | 
[V:1] AGG4^F2 | 
[V:2] B2c2A4 | 
[V:3] z8 | 
[V:4] z8 | 
[V:1] G8 | 
[V:2] G8 | 
[V:3] z8 | 
[V:4] z4G,4- | 
[V:1] z8 | 
[V:2] z8 | 
[V:3] d8 | 
[V:4] G,4F,4- | 
[V:1] z8 | 
[V:2] z8 | 
[V:3] c6BA | 
[V:4] F,2E,D,E,2F,2 | 
[V:1] z8 | 
[V:2] z8 | 
[V:3] B4c4- | 
[V:4] D,4C,4 | 
[V:1] z8 | 
[V:2] z8 | 
[V:3] c2B2A4 | 
[V:4] E,4F,4 | 
[V:1] z8 | 
[V:2] z8 | 
[V:3] GABcd2e2- | 
[V:4] G,3E,F,2G,2 | 
[V:1] z8 | 
[V:2] z8 | 
[V:3] edd4^c2 | 
[V:4] D,3F,E,4 | 
[V:1] z8 | 
[V:2] z8 | 
[V:3] d4z4 | 
[V:4] D,4G,,4 | 
[V:1] z8 | 
[V:2] z8 | 
[V:3] G4A4 | 
[V:4] z2C,4D,2- | 
[V:1] z8 | 
[V:2] z8 | 
[V:3] B4c4 | 
[V:4] D,2E,4F,2- | 
[V:1] z8 | 
[V:2] z8 | 
[V:3] d3Bc2d2 | 
[V:4] F,2G,3E,F,2 | 
[V:1] z8 | 
[V:2] z8 | 
[V:3] G4A2B2 | 
[V:4] G,2C,4D,2 | 
[V:1] z8 | 
[V:2] z8 | 
[V:3] c3BAGA2- | 
[V:4] E,2F,3E,D,C, | 
[V:1] z8 | 
[V:2] z8 | 
[V:3] AGG4^F2 | 
[V:4] B,,2C,2A,,4 | 
[V:1] z8 | 
[V:2] z8 | 
[V:3] G8- | 
[V:4] G,,8- | 
[V:1] (3:2:2G8d4- | 
[V:2] z4G4 | 
[V:3] G8 | 
[V:4] G,,8 | 
[V:1] (3d4e4c4 | 
[V:2] g4a4 | 
[V:3] z8 | 
[V:4] z8 | 
[V:1] (3:2:2d8B4 | 
[V:2] f4g2d2 | 
[V:3] z8 | 
[V:4] z8 | 
[V:1] (3:2:2A4c8 | 
[V:2] f3ge4 | 
[V:3] z8 | 
[V:4] z8 | 
[V:1] d8 | 
[V:2] d8 | 
[V:3] (3:2:2G8d4- | 
[V:4] z4G,,4 | 
[V:1] G4E4 | 
[V:2] B4c4 | 
[V:3] (3d4e4c4 | 
[V:4] G,4A,4 | 
[V:1] F4D4 | 
[V:2] A4d4 | 
[V:3] (3:2:2d8B4 | 
[V:4] F,4G,2D,2 | 
[V:1] A3GG4- | 
[V:2] c3BG4 | 
[V:3] (3:2:2A4c8 | 
[V:4] F,3G,E,4 | 
[V:1] G2^F2G4 | 
[V:2] A4z2G2 | 
[V:3] d8 | 
[V:4] D,4G,4 | 
[V:1] z8 | 
[V:2] A2c3BG2 | 
[V:3] z4e4 | 
[V:4] F,4E,4 | 
[V:1] z8 | 
[V:2] d2A2c4 | 
[V:3] f4e4 | 
[V:4] D,4C,4 | 
[V:1] z8 | 
[V:2] B2G2g4 | 
[V:3] d4G4 | 
[V:4] G,8 | 
[V:1] z8 | 
[V:2] g4g4 | 
[V:3] B4d4- | 
[V:4] G,8 | 
[V:1] z8 | 
[V:2] f8- | 
[V:3] d4d4 | 
[V:4] D,8- | 
[V:1] z8 | 
[V:2] f8 | 
[V:3] z4d4 | 
[V:4] D,8 | 
[V:1] z8 | 
[V:2] z8 | 
[V:3] B4c4 | 
[V:4] G,4E,2F,2- | 
[V:1] z8 | 
[V:2] z8 | 
[V:3] A3GA2B2- | 
[V:4] F,E,D,C,D,4 | 
[V:1] z8 | 
[V:2] z8 | 
[V:3] BAG4^F2 | 
[V:4] B,,2C,2A,,4 | 
[V:1] z4d4 | 
[V:2] z4z2g2- | 
[V:3] G8 | 
[V:4] G,,8 | 
[V:1] B4c3B | 
[V:2] g2e4f2- | 
[V:3] z8 | 
[V:4] z8 | 
[V:1] AGA2B3A | 
[V:2] fef2d2e2- | 
[V:3] d4B4 | 
[V:4] z4G,4 | 
[V:1] G2A4FG | 
[V:2] e2c2f4 | 
[V:3] c3BAGA2- | 
[V:4] E,2F,3E,D,2 | 
[V:1] A2B2c4 | 
[V:2] e2d2c2A2 | 
[V:3] A2G4^F2 | 
[V:4] C,2B,,2A,,4 | 
[V:1] B4z2d2- | 
[V:2] B4z4 | 
[V:3] G8 | 
[V:4] G,,8 | 
[V:1] d2d4e2- | 
[V:2] g4g4 | 
[V:3] z8 | 
[V:4] z8 | 
[V:1] e2c4d2- | 
[V:2] a4f4 | 
[V:3] z8 | 
[V:4] z8 | 
[V:1] d2B3GA2 | 
[V:2] g6f2 | 
[V:3] z8 | 
[V:4] z8 | 
[V:1] B2d4^c2 | 
[V:2] d3fe4 | 
[V:3] z8 | 
[V:4] z8 | 
[V:1] d8 | 
[V:2] d8 | 
[V:3] z4z2d2- | 
[V:4] z8 | 
[V:1] z8 | 
[V:2] z8 | 
[V:3] d2d4e2- | 
[V:4] G,4G,4 | 
[V:1] z8 | 
[V:2] z8 | 
[V:3] e2c4d2- | 
[V:4] A,4F,4 | 
[V:1] z8 | 
[V:2] z8 | 
[V:3] d2B3GA2 | 
[V:4] G,6F,2 | 
[V:1] z8 | 
[V:2] z8 | 
[V:3] B2d4^c2 | 
[V:4] D,3F,E,4 | 
[V:1] [M:3/1]d8d4 | 
[V:2] [M:3/1]A4B4A4 | 
[V:3] [M:3/1]d8z4 | 
[V:4] [M:3/1]D,4G,4F,4 | 
[V:1] c8A4 | 
[V:2] G8d4- | 
[V:3] e8f4 | 
[V:4] E,8D,4 | 
[V:1] B8c4 | 
[V:2] d2c2B4A4 | 
[V:3] d4e6d2 | 
[V:4] G,8F,4 | 
[V:1] d4B4G4 | 
[V:2] B4G8 | 
[V:3] d4G4B4 | 
[V:4] D,4E,8 | 
[V:1] d12 | 
[V:2] A12 | 
[V:3] d8d4 | 
[V:4] D,12 | 
[V:1] z12 | 
[V:2] z12 | 
[V:3] d8B4 | 
[V:4] z4G,8 | 
[V:1] z12 | 
[V:2] z12 | 
[V:3] c4A6G2 | 
[V:4] E,4F,4D,4- | 
[V:1] z12 | 
[V:2] z12 | 
[V:3] A4F4G4 | 
[V:4] D,2C,2D,4B,,4 | 
[V:1] z12 | 
[V:2] z12 | 
[V:3] G12 | 
[V:4] C,4G,,8 | 
[V:1] d8B4 | 
[V:2] z4g8 | 
[V:3] z12 | 
[V:4] z12 | 
[V:1] c4A6G2 | 
[V:2] e4f4d4- | 
[V:3] z12 | 
[V:4] z12 | 
[V:1] A4F4G4 | 
[V:2] d2c2d4B4 | 
[V:3] z12 | 
[V:4] z12 | 
[V:1] G12 | 
[V:2] c4G8 | 
[V:3] z12 | 
[V:4] z12 | 
[V:1] d8B4 | 
[V:2] z4g8 | 
[V:3] d8d4 | 
[V:4] G,8G,4 | 
[V:1] c4A6G2 | 
[V:2] e4f4d4- | 
[V:3] c4d4B4 | 
[V:4] A,4D,6E,2 | 
[V:1] A4F4G4 | 
[V:2] d2c2d4B4 | 
[V:3] A8G4- | 
[V:4] F,4D,4E,4 | 
[V:1] G12- | 
[V:2] c4c8 | 
[V:3] G4e8 | 
[V:4] C,12 | 
[V:1] G12 ||  
[V:2] B12 ||  
[V:3] d12 ||  
[V:4] G,12 ||  
[V:1] [M:2/1]A8 | 
[V:2] [M:2/1]z8 | 
[V:3] [M:2/1]z8 | 
[V:4] [M:2/1]z8 | 
[V:1] B4d4- | 
[V:2] z8 | 
[V:3] z8 | 
[V:4] z8 | 
[V:1] d4d4 | 
[V:2] d8 | 
[V:3] z8 | 
[V:4] z8 | 
[V:1] c4B4- | 
[V:2] e4g4- | 
[V:3] z8 | 
[V:4] z8 | 
[V:1] B2AGB4 | 
[V:2] g4g4 | 
[V:3] z8 | 
[V:4] z8 | 
[V:1] A3Bcde2- | 
[V:2] f4e4 | 
[V:3] z8 | 
[V:4] z8 | 
[V:1] e2d2B2d2- | 
[V:2] g6f2 | 
[V:3] z8 | 
[V:4] z8 | 
[V:1] d2c3BAG | 
[V:2] d2e2f4- | 
[V:3] z8 | 
[V:4] z8 | 
[V:1] ADd4^c2 | 
[V:2] f2d2e4 | 
[V:3] z4A4 | 
[V:4] z8 | 
[V:1] d8 | 
[V:2] d8 | 
[V:3] B4d4- | 
[V:4] z8 | 
[V:1] z8 | 
[V:2] z8 | 
[V:3] d4d4 | 
[V:4] D,8 | 
[V:1] z8 | 
[V:2] z8 | 
[V:3] c4B4- | 
[V:4] E,4G,4- | 
[V:1] z8 | 
[V:2] z8 | 
[V:3] B2AGB4 | 
[V:4] G,4G,4 | 
[V:1] z8 | 
[V:2] z8 | 
[V:3] A3Bcde2- | 
[V:4] F,4E,4 | 
[V:1] z8 | 
[V:2] z8 | 
[V:3] e2d2B2d2- | 
[V:4] G,6F,2 | 
[V:1] z8 | 
[V:2] z8 | 
[V:3] d2c3BAG | 
[V:4] D,2E,2F,4- | 
[V:1] z8 | 
[V:2] z8 | 
[V:3] ADd4^c2 | 
[V:4] F,2D,2E,4 | 
[V:1] z4d4 | 
[V:2] z8 | 
[V:3] d8 | 
[V:4] D,8 | 
[V:1] B3AB2c2- | 
[V:2] g4e4 | 
[V:3] z8 | 
[V:4] z8 | 
[V:1] c2d3cBA | 
[V:2] f4g4- | 
[V:3] z8 | 
[V:4] z8 | 
[V:1] G4A4 | 
[V:2] g2^fe^f4 | 
[V:3] z4d4 | 
[V:4] z8 | 
[V:1] G8 | 
[V:2] g8 | 
[V:3] B3AB2c2- | 
[V:4] G,4E,4 | 
[V:1] z8 | 
[V:2] z8 | 
[V:3] c2d3cBA | 
[V:4] F,4G,4- | 
[V:1] z8 | 
[V:2] z8 | 
[V:3] G4A4 | 
[V:4] G,2^F,E,F,4 | 
[V:1] z8 | 
[V:2] z8 | 
[V:3] G4z2d2- | 
[V:4] G,8 | 
[V:1] z8 | 
[V:2] z8 | 
[V:3] d2e3dB2 | 
[V:4] z4G,4 | 
[V:1] z8 | 
[V:2] z8 | 
[V:3] c2ABcde2- | 
[V:4] A,3G,F,2E,2 | 
[V:1] z8 | 
[V:2] z8 | 
[V:3] edd4^c2 | 
[V:4] F,2G,2E,4 | 
[V:1] z8 | 
[V:2] z8 | 
[V:3] d4z2G2- | 
[V:4] D,4G,,3A,, | 
[V:1] z8 | 
[V:2] z8 | 
[V:3] G2A2B2c2- | 
[V:4] B,,2C,2D,2E,2- | 
[V:1] z8 | 
[V:2] z8 | 
[V:3] cBAGA4 | 
[V:4] E,D,G,4^F,2 | 
[V:1] z4d4 | 
[V:2] z8 | 
[V:3] G8 | 
[V:4] G,8 | 
[V:1] B3AB2c2- | 
[V:2] g4e4 | 
[V:3] z8 | 
[V:4] z8 | 
[V:1] c2d3cBA | 
[V:2] f4g4- | 
[V:3] z8 | 
[V:4] z8 | 
[V:1] G4A4 | 
[V:2] g2^fe^f4 | 
[V:3] z8 | 
[V:4] z8 | 
[V:1] G4z2d2- | 
[V:2] g8 | 
[V:3] z8 | 
[V:4] z8 | 
[V:1] d2e3dB2 | 
[V:2] z4g4 | 
[V:3] z8 | 
[V:4] z8 | 
[V:1] c2ABcde2- | 
[V:2] a3gf2e2 | 
[V:3] z8 | 
[V:4] z8 | 
[V:1] edd4^c2 | 
[V:2] f2g2e4 | 
[V:3] z8 | 
[V:4] z8 | 
[V:1] d4z2G2- | 
[V:2] d4G3A | 
[V:3] z8 | 
[V:4] z8 | 
[V:1] G2A2B2c2- | 
[V:2] B2c2d2e2- | 
[V:3] z8 | 
[V:4] z8 | 
[V:1] cBAGA4 | 
[V:2] edg4^f2 | 
[V:3] z8 | 
[V:4] z4D,4 | 
[V:1] G8 | 
[V:2] g4z4 | 
[V:3] G8 | 
[V:4] E,4G,4- | 
[V:1] z8 | 
[V:2] d8 | 
[V:3] B8 | 
[V:4] G,4G,4 | 
[V:1] A4c4 | 
[V:2] e4g4- | 
[V:3] c8 | 
[V:4] z2C,3D,E,F, | 
[V:1] d8 | 
[V:2] g4g4- | 
[V:3] B4B4 | 
[V:4] G,4G,4 | 
[V:1] d8 | 
[V:2] g4f4 | 
[V:3] d6c2 | 
[V:4] D,8 | 
[V:1] c4B4 | 
[V:2] e4g4 | 
[V:3] A4G4 | 
[V:4] z8 | 
[V:1] d4G4 | 
[V:2] d4z2e2 | 
[V:3] z8 | 
[V:4] z8 | 
[V:1] z2A2B4 | 
[V:2] f4e4 | 
[V:3] z8 | 
[V:4] z8 | 
[V:1] A4F4 | 
[V:2] c4z2d2 | 
[V:3] z8 | 
[V:4] z8 | 
[V:1] z2G2A4 | 
[V:2] e4d4 | 
[V:3] z8 | 
[V:4] z8 | 
[V:1] G4D4 | 
[V:2] B4d4- | 
[V:3] z8 | 
[V:4] G,8 | 
[V:1] z8 | 
[V:2] d4c4 | 
[V:3] z8 | 
[V:4] F,4E,4- | 
[V:1] z8 | 
[V:2] B3AB2A2- | 
[V:3] z8 | 
[V:4] E,4D,4 | 
[V:1] z8 | 
[V:2] AGG4^F2 | 
[V:3] z8 | 
[V:4] C,2B,,2A,,4 | 
[V:1] z4d4- | 
[V:2] G8 | 
[V:3] g8 | 
[V:4] G,,8 | 
[V:1] d4c4 | 
[V:2] z8 | 
[V:3] f4e4- | 
[V:4] z8 | 
[V:1] B3AB2A2- | 
[V:2] z8 | 
[V:3] e4d4 | 
[V:4] z8 | 
[V:1] AGG4^F2 | 
[V:2] z8 | 
[V:3] c2B2A4 | 
[V:4] z8 | 
[V:1] G8 | 
[V:2] z8 | 
[V:3] G4z4 | 
[V:4] z8 | 
[V:1] [M:3/1]z4D8 | 
[V:2] [M:3/1]z12 | 
[V:3] [M:3/1]G6A2B4 | 
[V:4] [M:3/1]z12 | 
[V:1] E4G4G4 | 
[V:2] z12 | 
[V:3] c4c4B4 | 
[V:4] z12 | 
[V:1] F8E4 | 
[V:2] z12 | 
[V:3] A6B2c4 | 
[V:4] z12 | 
[V:1] G8D4 | 
[V:2] z4z4d4 | 
[V:3] d4G8 | 
[V:4] G,6A,2B,4 | 
[V:1] z12 | 
[V:2] e4g4g4 | 
[V:3] z12 | 
[V:4] C4C4B,4 | 
[V:1] z12 | 
[V:2] f4e4g4- | 
[V:3] z12 | 
[V:4] A,4C4G,4 | 
[V:1] z12 | 
[V:2] g2f2d4e4 | 
[V:3] z12 | 
[V:4] A,4B,4A,4 | 
[V:1] z12 | 
[V:2] f4e4c4 | 
[V:3] z12 | 
[V:4] F,4G,4A,4 | 
[V:1] z12 | 
[V:2] d4e4d4 | 
[V:3] z12 | 
[V:4] G,4E,4z4 | 
[V:1] z4z4G4 | 
[V:2] B4z4d4 | 
[V:3] d8B4 | 
[V:4] G,6F,2G,4 | 
[V:1] G4F4A4 | 
[V:2] e4c4d4 | 
[V:3] c4A4F4 | 
[V:4] E,4F,4D,4 | 
[V:1] G6E2^F4 | 
[V:2] d4c4A4 | 
[V:3] G4A8 | 
[V:4] B,,4C,4D,4 | 
[V:1] G4d4B4 | 
[V:2] B4G4g4 | 
[V:3] G12 | 
[V:4] G,,12 | 
[V:1] c4A4F4 | 
[V:2] e4f4d4 | 
[V:3] z12 | 
[V:4] z12 | 
[V:1] G4A8 | 
[V:2] B4c4d4 | 
[V:3] z12 | 
[V:4] z12 | 
[V:1] G8G4 | 
[V:2] G4z4d4 | 
[V:3] d8B4 | 
[V:4] G,6F,2G,4 | 
[V:1] G4F4A4 | 
[V:2] e4c4d4 | 
[V:3] c4A4F4 | 
[V:4] E,4F,4D,4 | 
[V:1] G6E2^F4 | 
[V:2] d4c4A4 | 
[V:3] G4A8 | 
[V:4] B,,4C,4D,4 | 
[V:1] G12 ||  
[V:2] B12 ||  
[V:3] G12 ||  
[V:4] G,,12 ||  
[V:1] [M:2/1]d6B2 | 
[V:2] [M:2/1]z4g4- | 
[V:3] [M:2/1]z8 | 
[V:4] [M:2/1]z8 | 
[V:1] B4c4- | 
[V:2] g2e2e4 | 
[V:3] z8 | 
[V:4] z8 | 
[V:1] c2A2A4 | 
[V:2] f6d2 | 
[V:3] z4d4- | 
[V:4] z8 | 
[V:1] B6G2 | 
[V:2] d4e4- | 
[V:3] d2B2B4 | 
[V:4] G,6E,2 | 
[V:1] G4A4- | 
[V:2] e2c2c4 | 
[V:3] c6A2 | 
[V:4] E,4F,4- | 
[V:1] A2F2F4 | 
[V:2] d6B2 | 
[V:3] A4B4- | 
[V:4] F,2D,2D,4 | 
[V:1] G6E2 | 
[V:2] B6cd | 
[V:3] B2G2G4 | 
[V:4] E,6C,2 | 
[V:1] E6F2 | 
[V:2] e8- | 
[V:3] c4z4 | 
[V:4] C,8 | 
[V:1] G8 | 
[V:2] e8 | 
[V:3] c6d2 | 
[V:4] z4C,4- | 
[V:1] z8 | 
[V:2] z8 | 
[V:3] e2f2g2a2- | 
[V:4] C,2D,2E,2F,2 | 
[V:1] z8 | 
[V:2] z8 | 
[V:3] agg4^f2 | 
[V:4] G,4A,4 | 
[V:1] G6A2 | 
[V:2] z4G4- | 
[V:3] g8- | 
[V:4] G,8 | 
[V:1] B2c2d2e2- | 
[V:2] G2A2B2c2 | 
[V:3] g8 | 
[V:4] z8 | 
[V:1] edd4^c2 | 
[V:2] d4e4 | 
[V:3] z4g4 | 
[V:4] z8 | 
[V:1] d4z2d2- | 
[V:2] d8 | 
[V:3] a4f4 | 
[V:4] z8 | 
[V:1] d2e4c2- | 
[V:2] z8 | 
[V:3] g4e2f2- | 
[V:4] z8 | 
[V:1] c2d3BB2 | 
[V:2] z2d4e2- | 
[V:3] fef2g4 | 
[V:4] z4G,4 | 
[V:1] c3BA4 | 
[V:2] e2c4d2- | 
[V:3] c4f4 | 
[V:4] A,4F,4 | 
[V:1] G4z4 | 
[V:2] dBB2c3B | 
[V:3] d2e4c2 | 
[V:4] G,4E,2F,2- | 
[V:1] z4d4 | 
[V:2] AGG4F2 | 
[V:3] d2c4B2 | 
[V:4] F,2E,2D,4 | 
[V:1] e3de2c2 | 
[V:2] G4g2a2 | 
[V:3] c8 | 
[V:4] C,8 | 
[V:1] d2B3AB2 | 
[V:2] f2g4e2- | 
[V:3] z8 | 
[V:4] z8 | 
[V:1] c3BA2B2 | 
[V:2] ede2f2g2 | 
[V:3] z4d4 | 
[V:4] z4z2G,2- | 
[V:1] z8 | 
[V:2] z8 | 
[V:3] e3de2c2 | 
[V:4] G,2A,3G,A,2 | 
[V:1] z8 | 
[V:2] z8 | 
[V:3] d2B3AB2 | 
[V:4] F,2G,2E,3D, | 
[V:1] z4d3B | 
[V:2] z4z2g2- | 
[V:3] c2d2z4 | 
[V:4] E,2F,2G,4 | 
[V:1] B2c3AA2 | 
[V:2] gee2f3d | 
[V:3] z8 | 
[V:4] z8 | 
[V:1] B3GG2z2 | 
[V:2] d2e3cc2 | 
[V:3] z8 | 
[V:4] z8 | 
[V:1] G4A2B2- | 
[V:2] z2c4d2 | 
[V:3] z8 | 
[V:4] z8 | 
[V:1] B2c2d2e2- | 
[V:2] e4f2g2 | 
[V:3] z8 | 
[V:4] z8 | 
[V:1] edcBc2d2 | 
[V:2] a3gfef2 | 
[V:3] z8 | 
[V:4] z8 | 
[V:1] z2d2e2c2 | 
[V:2] g2z2g2a2 | 
[V:3] z8 | 
[V:4] z8 | 
[V:1] d2B2cBAG | 
[V:2] f2g2e2fe | 
[V:3] d2e2c2d2 | 
[V:4] z2G,2A,2F,2 | 
[V:1] G4z2d2 | 
[V:2] dcc4B2 | 
[V:3] B2c2A2G2 | 
[V:4] G,2E,2F,2G,2 | 
[V:1] e2c2d2B2 | 
[V:2] c4z4 | 
[V:3] g2a2f2g2 | 
[V:4] C,4z4 | 
[V:1] c2A3GA2 | 
[V:2] z4z2d2- | 
[V:3] e3de2f2 | 
[V:4] z8 | 
[V:1] G4z4 | 
[V:2] d2e2c2d2 | 
[V:3] g4z4 | 
[V:4] G,4A,2F,2 | 
[V:1] z8 | 
[V:2] B3AB2c2 | 
[V:3] z8 | 
[V:4] G,2E,3D,E,2 | 
[V:1] z2G2A2F2 | 
[V:2] d8 | 
[V:3] z8 | 
[V:4] F,2G,2z2D,2 | 
[V:1] G4c4 | 
[V:2] G4A4 | 
[V:3] z8 | 
[V:4] E,4F,4 | 
[V:1] B4z4 | 
[V:2] B4d4 | 
[V:3] z2G2A2F2 | 
[V:4] G,4D,4 | 
[V:1] G4A4 | 
[V:2] c2B2A4 | 
[V:3] G4c4 | 
[V:4] E,4F,4 | 
[V:1] B4d4 | 
[V:2] G8 | 
[V:3] [M:3/3](3B2G2A2(3B3cd2 | 
[V:4] G,8 | 
[V:1] c2B2A4 | 
[V:2] z8 | 
[V:3] (3:2:6e3fg2a2^f3e | 
[V:4] z4D,4 | 
[V:1] G4z4 | 
[V:2] G3AB2c2- | 
[V:3] [M:2/1]g8 | 
[V:4] E,3F,G,2C,D, | 
[V:1] G3AB2c2- | 
[V:2] c2B2G2A2- | 
[V:3] z8 | 
[V:4] E,F,G,4F,E, | 
[V:1] c2B2G2A2- | 
[V:2] AGG3EF2 | 
[V:3] z8 | 
[V:4] F,2G,2E,2D,2 | 
[V:1] AGG4^F2 | 
[V:2] G4A4 | 
[V:3] z8 | 
[V:4] E,4D,4 | 
[V:1] [M:3/1]G8z4 | 
[V:2] [M:3/1]G8z4 | 
[V:3] [M:3/1]d4d4c4 | 
[V:4] [M:3/1]z12 | 
[V:1] z12 | 
[V:2] z12 | 
[V:3] B4G4A4 | 
[V:4] G,4G,4F,4 | 
[V:1] z12 | 
[V:2] G4G4F4 | 
[V:3] B4c4A4 | 
[V:4] E,4C,4D,4 | 
[V:1] z12 | 
[V:2] E8F4 | 
[V:3] c8C4 | 
[V:4] C,6B,,2A,,4 | 
[V:1] z12 | 
[V:2] G4A6G2 | 
[V:3] D4E6D2 | 
[V:4] G,,4C,6B,,2 | 
[V:1] [M:2/1]z8 | 
[V:2] [M:2/1]G8 | 
[V:3] [M:2/1]D4d4 | 
[V:4] [M:2/1]G,,8 | 
[V:1] G4A4 | 
[V:2] z8 | 
[V:3] e4c4 | 
[V:4] z8 | 
[V:1] F4G4 | 
[V:2] z4G4 | 
[V:3] d4z4 | 
[V:4] D,4E,4 | 
[V:1] z8 | 
[V:2] A4F4 | 
[V:3] z8 | 
[V:4] C,4D,4 | 
[V:1] z2G2A2F2 | 
[V:2] G4z4 | 
[V:3] d2e2c2d2 | 
[V:4] z4z2D,2 | 
[V:1] G2E2F2D2 | 
[V:2] G2A2F2G2- | 
[V:3] B2c2A2G2 | 
[V:4] E,2C,2D,2z2 | 
[V:1] E4z4 | 
[V:2] G2A2B2c2- | 
[V:3] z4d2e2 | 
[V:4] z8 | 
[V:1] z2B2c2A2 | 
[V:2] c2B2A4 | 
[V:3] c2d2z4 | 
[V:4] z2G,2A,2F,2 | 
[V:1] B2G2A2B2 | 
[V:2] G4z2d2 | 
[V:3] B2c2A2G2 | 
[V:4] G,2E,2F,2G,2 | 
[V:1] c4z4 | 
[V:2] e2c2d2z2 | 
[V:3] g4g4 | 
[V:4] C,4G,4 | 
[V:1] z2B2c2A2 | 
[V:2] d2e2c2d2 | 
[V:3] z2g2e2f2 | 
[V:4] z2G,2A,2F,2 | 
[V:1] B2G2A2B2 | 
[V:2] B2c2A2G2 | 
[V:3] d2g2f2d2 | 
[V:4] G,2E,2F,2G,2 | 
[V:1] c4z4 | 
[V:2] c6A2 | 
[V:3] e6c2 | 
[V:4] C,8 | 
[V:1] z4A4- | 
[V:2] A8 | 
[V:3] c4z2d2- | 
[V:4] F,6D,2 | 
[V:1] A4F4 | 
[V:2] d8 | 
[V:3] dcA2_B4 | 
[V:4] !fermata!D,8- | 
[V:1] !fermata!F8 | 
[V:2] !fermata!d8 | 
[V:3] !fermata!A8 | 
[V:4] D,8 | 
[V:1] G8 | 
[V:2] d8 | 
[V:3] G8 | 
[V:4] G,,8 | 
[V:1] G8 |]  
[V:2] d8 |]  
[V:3] G8 |]  
[V:4] G,,8 |]  



